svg/u1f465.svg

<svg viewBox="0 0 128 128" xmlns="http://www.w3.org/2000/svg">
  <g>
    <path d="M93.86,26.6c0.02,0,0.03,0,0.05,0s0.03,0,0.05,0H93.86z" fill="#1798F3"/>
    <path d="M32.72,26.6c0.02,0,0.03,0,0.05,0s0.03,0,0.05,0H32.72z" fill="#1976D2"/>
    <path d="M119.56,103.9c-2.1-0.8-4.4-1.4-6.8-1.9c-3.6-0.8-7.5-1.3-11.4-1.6l-0.1,0.1v-0.9 c4-1.2,7.8-3.4,10.9-6.5c2.8-2.8,5.1-6.4,6.6-10.8c0.4-0.1,0.7-0.4,1-0.7c2.8-2.8,4.3-11.9,3.4-13.2c0.4-2.5,1.8-13.9-2-24.1 c-0.1-0.2-0.2-0.5-0.3-0.7c-0.2-0.5-0.4-0.9-0.6-1.4c-0.5-1.1-1.1-2.2-1.7-3.3c-0.1-0.2-0.3-0.4-0.4-0.7c-0.6-0.8-1.2-1.7-1.8-2.4 c-0.3-0.4-0.7-0.8-1-1.2c-4.49-4.69-11.28-7.99-21.45-8c-10.16,0.01-14.96,3.31-19.45,8c-0.3,0.4-0.7,0.8-1,1.2 c-0.6,0.7-1.2,1.6-1.8,2.4c-0.1,0.3-0.3,0.5-0.4,0.7c-0.6,1.1-1.2,2.2-1.7,3.3c-0.2,0.5-0.4,0.9-0.6,1.4c-0.1,0.2-0.2,0.5-0.3,0.7 c-3.8,10.2-2.4,21.6-2,24.1c-0.9,1.3,0.6,10.4,3.4,13.2c0.3,0.3,0.6,0.6,1,0.7c1.5,4.4,3.8,8,6.6,10.8c3.1,3.1,4.9,5.3,8.9,6.5v0.9 c-8.6,0.69-16.71,2.59-22.88,5.69c-2.73,1.37-5.08,2.97-6.92,4.81c-2.7,2.7-4.3,5.9-4.3,9.7v3.3h21.76h50.06v-18.09 C122.8,105.17,121.22,104.5,119.56,103.9z" fill="#1798F3"/>
  </g>
  <path d="M63.67,106.19c-1.62-0.85-3.38-1.62-5.26-2.29c-2.1-0.8-4.4-1.4-6.8-1.9c-3.6-0.8-7.5-1.3-11.4-1.6 l-0.1,0.1v-0.9c4-1.2,7.8-3.4,10.9-6.5c2.8-2.8,5.1-6.4,6.6-10.8c0.4-0.1,0.7-0.4,1-0.7c2.8-2.8,4.3-11.9,3.4-13.2 c0.4-2.5,1.8-13.9-2-24.1c-0.1-0.2-0.2-0.5-0.3-0.7c-0.2-0.5-0.4-0.9-0.6-1.4c-0.5-1.1-1.1-2.2-1.7-3.3c-0.1-0.2-0.3-0.4-0.4-0.7 c-0.6-0.8-1.2-1.7-1.8-2.4c-0.3-0.4-0.7-0.8-1-1.2c-4.49-4.69-11.28-7.99-21.45-8c-10.16,0.01-14.96,3.31-19.45,8 c-0.3,0.4-0.7,0.8-1,1.2c-0.6,0.7-1.2,1.6-1.8,2.4c-0.1,0.3-0.3,0.5-0.4,0.7c-0.6,1.1-1.2,2.2-1.7,3.3c-0.2,0.5-0.4,0.9-0.6,1.4 c-0.1,0.2-0.2,0.5-0.3,0.7c-3.8,10.2-2.4,21.6-2,24.1c-0.9,1.3,0.6,10.4,3.4,13.2c0.3,0.3,0.6,0.6,1,0.7c1.5,4.4,3.8,8,6.6,10.8 c3.1,3.1,4.9,5.3,8.9,6.5v0.9c-7.89,0.64-15.38,2.29-21.32,4.95V124h48.36h21.76v-3.3C74.22,114.25,70.02,109.52,63.67,106.19z" fill="#1976D2"/>
</svg>

<svg viewBox="0 0 128 128" xmlns="http://www.w3.org/2000/svg">
  <defs/>
  <path d="M119.56,103.9 C117.46,103.1 115.16,102.5 112.76,102 C109.16,101.2 105.26,100.7 101.36,100.4 L101.26,100.5 L101.26,99.6 C105.26,98.4 109.06,96.2 112.16,93.1 C114.96,90.3 117.26,86.7 118.76,82.3 C119.16,82.2 119.46,81.9 119.76,81.6 C122.56,78.8 124.06,69.7 123.16,68.4 C123.56,65.9 124.96,54.5 121.16,44.3 C121.06,44.1 120.96,43.8 120.86,43.6 C120.66,43.1 120.46,42.7 120.26,42.2 C119.76,41.1 119.16,40 118.56,38.9 C118.46,38.7 118.26,38.5 118.16,38.2 C117.56,37.4 116.96,36.5 116.36,35.8 C116.06,35.4 115.66,35 115.36,34.6 C110.87,29.91 104.08,26.61 93.91,26.6 C83.75,26.61 78.95,29.91 74.46,34.6 C74.16,35 73.76,35.4 73.46,35.8 C72.86,36.5 72.26,37.4 71.66,38.2 C71.56,38.5 71.36,38.7 71.26,38.9 C70.66,40 70.06,41.1 69.56,42.2 C69.36,42.7 69.16,43.1 68.96,43.6 C68.86,43.8 68.76,44.1 68.66,44.3 C64.86,54.5 66.26,65.9 66.66,68.4 C65.76,69.7 67.26,78.8 70.06,81.6 C70.36,81.9 70.66,82.2 71.06,82.3 C72.56,86.7 74.86,90.3 77.66,93.1 C80.76,96.2 82.56,98.4 86.56,99.6 L86.56,100.5 C77.96,101.19 69.85,103.09 63.68,106.19 C60.95,107.56 58.6,109.16 56.76,111 C54.06,113.7 52.46,116.9 52.46,120.7 L52.46,124 L74.22,124 L124.28,124 L124.28,105.91 C122.8,105.17 121.22,104.5 119.56,103.9 Z" fill="#1798F3"/>
  <path d="M63.67,106.19 C62.05,105.34 60.29,104.57 58.41,103.9 C56.31,103.1 54.01,102.5 51.61,102 C48.01,101.2 44.11,100.7 40.21,100.4 L40.11,100.5 L40.11,99.6 C44.11,98.4 47.91,96.2 51.01,93.1 C53.81,90.3 56.11,86.7 57.61,82.3 C58.01,82.2 58.31,81.9 58.61,81.6 C61.41,78.8 62.91,69.7 62.01,68.4 C62.41,65.9 63.81,54.5 60.01,44.3 C59.91,44.1 59.81,43.8 59.71,43.6 C59.51,43.1 59.31,42.7 59.11,42.2 C58.61,41.1 58.01,40 57.41,38.9 C57.31,38.7 57.11,38.5 57.01,38.2 C56.41,37.4 55.81,36.5 55.21,35.8 C54.91,35.4 54.51,35 54.21,34.6 C49.72,29.91 42.93,26.61 32.76,26.6 C22.6,26.61 17.8,29.91 13.31,34.6 C13.01,35 12.61,35.4 12.31,35.8 C11.71,36.5 11.11,37.4 10.51,38.2 C10.41,38.5 10.21,38.7 10.11,38.9 C9.51,40 8.91,41.1 8.41,42.2 C8.21,42.7 8.01,43.1 7.81,43.6 C7.71,43.8 7.61,44.1 7.51,44.3 C3.71,54.5 5.11,65.9 5.51,68.4 C4.61,69.7 6.11,78.8 8.91,81.6 C9.21,81.9 9.51,82.2 9.91,82.3 C11.41,86.7 13.71,90.3 16.51,93.1 C19.61,96.2 21.41,98.4 25.41,99.6 L25.41,100.5 C17.52,101.14 10.03,102.79 4.09,105.45 L4.09,124 L52.45,124 L74.21,124 L74.21,120.7 C74.22,114.25 70.02,109.52 63.67,106.19 Z" fill="#1976D2"/>
</svg>
